X:13
T:Irish Quadrilles. JGi.013
T:Irish Washerwoman,aka. JGi.013
S:Joshua Gibbons MS,1823,Tealby,Lincs.
M:6/8
L:1/8
Q:3/8=115
R:Jig
O:Tealby,Lincolnshire
Z:VMP/R.Greig, 2009
K:D
ag|fdd Add|fdf agf|gee Bee|geg bag|
fdd Add|fdf agf|gfg eag|fdd dz:|
|:d|dAA FAA|dcd fed|cAA FAA|c>Bc edc|
Bcd ABc|g>fg f2 f|g>fg eag|fdd dz:|

